!!!COM:	Josquin des Pres
**kern	**kern
*part2	*part1
*staff2	*staff1
*clefGv2	*clefG2
*k[b-]	*k[b-]
*M2/1	*M2/1
=1-	=1-
0g	0r
=2	=2
1a	0cc
1a	.
=3	=3
2.g	1dd
4f	.
2g	1dd
2d	.
=4	=4
2.f	2.cc
4g	4b-
1e	2cc
.	2g
=5	=5
1d	2.b-
.	4cc
2r	1a
2d	.
=6	=6
1e	1g
1e	2r
.	2g
=7	=7
2.d	1a
4c	.
2d	1a
2A	.
=8	=8
2.c	2.g
4d	4f
1B-	2g
.	2d
=9	=9
0A	2.f
.	4g
.	1e
=10	=10
1r	0d
1f	.
=11	=11
1g	1r
1g	1b-
=12	=12
2.a	1cc
4g	.
2f	1cc
[2e	.
=13	=13
1d	2.dd
.	4cc
2r	2b-
2d	2a
=14	=14
2e	1g
2.g	.
.	2r
4f	.
4g	2g
4e	.
=15	=15
2f	2a
2e	2.cc
1c	.
.	4b-
.	4cc
.	4a
=16	=16
2r	2b-
2c	2a
2d	1f
[2f	.
=17	=17
4f]	2r
4e	.
4f	2f
4d	.
2e	2g
2d	[2b-
=18	=18
2.g	4b-]
.	4a
.	4b-
4e	4g
4f	2a
4g	.
2e	2g
=19	=19
2.a	2.cc
4f	4a
4g	4b-
4a	4cc
[2f	2a
=20	=20
4f]	2.dd
4e	.
4f	.
4d	4b-
4e	4cc
4f	4dd
[2g	[2b-
=21	=21
4g]	4b-]
4f	4a
4g	4b-
4e	4g
2d	4a
.	4b-
2c	[2cc
=22	=22
1f	4cc]
.	4b-
.	4cc
.	4a
2r	2g
[2d	2f
=23	=23
4d]	1b-
4e	.
2g	.
2f	2r
2g	[2g
=24	=24
1e	4g]
.	4a
.	2cc
2r	2b-
[2c	2cc
=25	=25
4c]	1a
4d	.
2f	.
2e	2r
2f	[2f
=26	=26
1d	4f]
.	4g
.	2b-
2r	2a
2d	2b-
=27	=27
2.e	1g
4d	.
4e	2r
4f	.
4g	2g
4e	.
=28	=28
2f	2.a
4d	.
4e	4g
4f	4a
4d	4b-
4e	4cc
4f	4a
=29	=29
2.g	2b-
.	4g
4f	4a
4g	4b-
4e	4g
4f	4a
4g	4b-
=30	=30
3.a	2.cc
6g	.
3a	.
.	4b-
3f	4cc
.	4a
3%2e	.
.	4b-
.	4cc
=31	=31
3.d	3.dd
6e	6cc
3f	3dd
3g	3b-
3a	3%2a
3f	.
=32	=32
0g	0g
==	==
*-	*-
